web/assets/images/product/egg.svg

<svg xmlns="http://www.w3.org/2000/svg" viewBox="0 0 17 25"><path d="M14.9 7.5l-.4-1.1C12.9 2.9 10.8 1 8.5 1H8h-.1c-2.5.4-4.8 3.2-6.1 7.6l-.3.9c-.5 2-.8 4.2-.8 6.2 0 2.5.9 4.6 2.5 6.1C4.7 23.3 6.6 24 8.6 24c3.7 0 7.6-2.4 7.6-7.8V16v-.3c.1-2.7-.4-5.7-1.3-8.2zm0 8.5v.2c0 3.1-2 6.4-6.3 6.4-1.7 0-3.3-.6-4.5-1.7-1.3-1.2-2-3-2-5.2 0-1.9.3-4 .7-5.9l.3-.8c1.2-3.8 3-6.3 5-6.6h.5c1.7 0 3.4 1.7 4.7 4.6l.3 1c.8 2.4 1.3 5.2 1.3 7.8v.2zm-2.2-6.9c.1.3-.1.5-.3.6h-.1c-.2 0-.4-.1-.5-.4-.3-.9-.6-1.6-1.1-2.3-.1-.2-.1-.5.1-.7.2-.2.5-.1.7.1.5.9.9 1.7 1.2 2.7zm-2.6-4.2c.2.2.2.5.1.7-.1.1-.2.2-.4.2-.1 0-.2 0-.3-.1-.7-.7-1.3-.9-1.3-.9-.3-.1-.4-.4-.3-.6.1-.3.3-.4.6-.3 0 0 .8.3 1.6 1z"/></svg>

<?xml version="1.0" encoding="utf-8"?>
<svg version="1.1" id="Capa_1" xmlns="http://www.w3.org/2000/svg" xmlns:xlink="http://www.w3.org/1999/xlink" x="0px" y="0px"
	 viewBox="0 0 17 25" style="enable-background:new 0 0 17 25;" xml:space="preserve">
<path d="M14.9,7.5l-0.4-1.1C12.9,2.9,10.8,1,8.5,1C8.3,1,8.1,1,8,1c0,0,0,0-0.1,0C5.4,1.4,3.1,4.2,1.8,8.6L1.5,9.5
	c-0.5,2-0.8,4.2-0.8,6.2c0,2.5,0.9,4.6,2.5,6.1C4.7,23.3,6.6,24,8.6,24c3.7,0,7.6-2.4,7.6-7.8c0-0.1,0-0.1,0-0.2c0-0.1,0-0.2,0-0.3
	C16.3,13,15.8,10,14.9,7.5z M14.9,16c0,0.1,0,0.2,0,0.2c0,3.1-2,6.4-6.3,6.4c-1.7,0-3.3-0.6-4.5-1.7c-1.3-1.2-2-3-2-5.2
	c0-1.9,0.3-4,0.7-5.9L3.1,9c1.2-3.8,3-6.3,5-6.6c0,0,0.1,0,0.1,0c0.1,0,0.2,0,0.4,0c1.7,0,3.4,1.7,4.7,4.6L13.6,8
	c0.8,2.4,1.3,5.2,1.3,7.8C14.9,15.9,14.9,15.9,14.9,16z M12.7,9.1c0.1,0.3-0.1,0.5-0.3,0.6c0,0-0.1,0-0.1,0c-0.2,0-0.4-0.1-0.5-0.4
	c-0.3-0.9-0.6-1.6-1.1-2.3c-0.1-0.2-0.1-0.5,0.1-0.7c0.2-0.2,0.5-0.1,0.7,0.1C12,7.3,12.4,8.1,12.7,9.1z M10.1,4.9
	c0.2,0.2,0.2,0.5,0.1,0.7c-0.1,0.1-0.2,0.2-0.4,0.2c-0.1,0-0.2,0-0.3-0.1C8.8,5,8.2,4.8,8.2,4.8C7.9,4.7,7.8,4.4,7.9,4.2
	C8,3.9,8.2,3.8,8.5,3.9C8.5,3.9,9.3,4.2,10.1,4.9z"/>
</svg>
